src/actions/22/password-copy.svg

<svg xmlns="http://www.w3.org/2000/svg" viewBox="0 0 22 22">
    <defs id="defs3051">
        <style id="current-color-scheme" type="text/css">
            .ColorScheme-Highlight{color:#a0b6cb}
        </style>
    </defs>
    <path d="M8 3a3 3 0 0 0-3 3v3H3v6h10V9h-2V6a3 3 0 0 0-3-3zm0 1a2 2 0 0 1 2 2v3H6V6a2 2 0 0 1 2-2zm4 2v1h7v7h-4v4h-4v-2h-1v3h6l4-4V6h-8zm-8 4h8v4H4v-4z" style="fill:currentColor;fill-opacity:1;stroke:none;color:#050505;opacity:.7"/>
</svg>

<svg xmlns="http://www.w3.org/2000/svg" viewBox="0 0 22 22">
  <defs id="defs3051">
    <style type="text/css" id="current-color-scheme">
      .ColorScheme-Text {
        color:#363636;
      }
      .ColorScheme-Highlight {
        color:#3daee9;
      }
      </style>
  </defs>
 <path 
     style="fill:currentColor;fill-opacity:1;stroke:none" 
     d="M 8 3 C 6.3431375 3 5 4.3431371 5 6 L 5 9 L 3 9 L 3 15 L 13 15 L 13 9 L 11 9 L 11 6 C 11 4.3431371 9.6568625 3 8 3 z M 8 4 C 9.1045695 4 10 4.8954305 10 6 L 10 9 L 6 9 L 6 6 C 6 4.8954305 6.8954305 4 8 4 z M 12 6 L 12 7 L 19 7 L 19 14 L 16 14 L 15 14 L 15 15 L 15 18 L 11 18 L 11 16 L 10 16 L 10 17 L 10 18 L 10 19 L 16 19 L 20 15 L 20 14 L 20 7 L 20 6 L 12 6 z M 4 10 L 12 10 L 12 14 L 4 14 L 4 10 z "
     class="ColorScheme-Text"
     />
</svg>
